X:1
T:Ladies, you see time flieth - Morley
T:James Gibb editions
T:#
%%score { 1 | 2 | 3 } 4 5 6
L:1/8
M:4/4
K:F
V:1 treble nm="Soprano I"
V:2 treble 
V:3 treble 
V:4 treble nm="Alto" snm="A"
V:5 treble-8 nm="Tenor" snm="T"
V:6 bass nm="Bass" snm="B"
V:1
 B8 | A6 d2 |"^Ladies, you see time flieth" c2 B2 A4 | =B4 z4 | %4
w: La-|dies, you|see time fli-|eth,|
 z2 G2"^Thomas Morley\n(1557-1603)" d4- | d2 d2 _e2 d2 |[M:4/4] d4 =B2 _B2 | B3 B A2 G2 | %8
w: la- dies,|* you see time|fli- eth, And|beau- ty too it|
 A4 A2 B2 | B6 B2 | G2 G2 ^F4 | G8 | z4 G4 | ^F6 B2 | A2 G2 ^F4 | G8 | z8 | z2 G2 G2 G2 | %18
w: di- eth, and|beau- ty|too it di-|eth.|La-|dies, you|see time fli-|eth,||you see time|
 ^F4 G2 G2 | G3 F E2 D2 | E4 ^F2 =F2 | F6 F2 | c2 B2 A4 | =B8 ||[M:3/2][Q:1/4=240] d4 B4 c4 | %25
w: fli- eth, And|beau- ty too it|di- eth. and|beau- ty|too it di-|eth.|Then take your|
 d8 d4 | d4 c4 B4 | A8 A4 |[Q:1/4=240] d4 d4 d4 | c8 A4 | %30
w: plea- sure|while you have|lei- sure,|then take your|plea- sure|
[M:3/2][Q:1/4=240][Q:1/4=240][Q:1/4=240][Q:1/4=240] _e4 e4 d4 ||[M:4/4][Q:1/4=120] d4 d4 | z8 | %33
w: while you have|lei- sure.||
 z8 | z8 | z4 z2 d2 | f3 f e2 d2 |[M:4/4] ^c4 d2 A2 | B4 B2 c2- | cB (B4 A2) | B2 d2 d3 d | %41
w: ||Of|that which you have|plen- ty, of|that which you|* have plen\- *|ty, of that which|
 _e2 d2 d4 | =B2 _B2 A2 G2 |[Q:1/4=120][Q:1/4=120][Q:1/4=120][Q:1/4=120] c3 B (A2 G2 | ^F2 G2 A4) | %45
w: you have plen-|ty, of that which|you have plen\- *||
 =B8 ||[M:3/2][Q:1/4=240] B4 G4 A4 | B8 B4 | B4 A4 G4 | %49
w: ty.|Then take your|plea- sure|while you have|
[M:3/2][Q:1/4=240][Q:1/4=240][Q:1/4=240][Q:1/4=240] ^F8 F4 | F4 F4 F4 | F8 F4 | G4 G4 G4 || %53
w: lei- sure,|then take your|plea- sure|while you have|
[M:4/4][Q:1/4=120] ^F4 G4 | z4 G4 | A4 B4 |[M:4/4][Q:1/4=120][Q:1/4=120][Q:1/4=120][Q:1/4=120] G8 | %57
w: lei- sure.|Nor|be so|dain-|
 ^F6 z2 | z8 | z4 z2 F2 | G6 G2 | F2 F2 F4 | F2 F2 F3 F | c2 B2 A4 | =B2 _B2 A2 G2 | %65
w: ty||of|that which|you have plen-|ty, of that which|you have plen-|ty, of that which|
[Q:1/4=117] c3[Q:1/4=115] B[Q:1/4=113] (A2[Q:1/4=110] G2 | %66
w: you have plen\- *|
[Q:1/4=108] ^F2[Q:1/4=105] G2[Q:1/4=102] A4) |[Q:1/4=100] =B8 |] %68
w: |ty.|
V:2
 z8 | z8 | z8 | z2 G2 d2 B2 | A2 G2 ^F4 | G2 B2 c2 B2 |[M:4/4] A4 G4 | z8 | z4 z2 d2 | d6 d2 | %10
w: |||La- dies, you|see time fli-|eth, you see time|fli- eth,||And|beau- ty|
 _e2 d2 d4 | d8 | z4 B4 | A6 d2 | c2 B2 A4 | =B4 z4 | z2 G2 d4- | d2 d2 _e2 d2 | d4 =B2 _B2 | %19
w: too it di-|eth.|La-|dies, you|see time fli-|eth,|la- dies,|* you see time|fli- eth, And|
 B3 B A2 G2 | A4 A2 B2 | B6 B2 | G2 G2 ^F4 | G8 ||[M:3/2] F4 G4 A4 | B8 B4 | B4 A4 G4 | ^F8 F4 | %28
w: beau- ty too it|di- eth, and|beau- ty|too it di-|eth.|Then take your|plea- sure|while you have|lei- sure,|
 F4 F4 F4 | F8 F4 |[M:3/2] G4 G4 G4 ||[M:4/4] ^F4 G4 | z4 G4 | A4 B4 | G8 | ^F6 z2 | z8 | %37
w: then take your|plea- sure|while you have|lei- sure.|Nor|be so|dain-|ty||
[M:4/4] z4 z2 F2 | G6 G2 | F2 F2 F4 | F2 F2 F3 F | c2 B2 A4 | G4 z2 B2 | A2 G2 c3 B | (A2 G4 ^F2) | %45
w: of|that which|you have plen-|ty, of that which|you have plen-|ty, of|that which you have|plen\- * *|
 G8 ||[M:3/2] d4 B4 c4 | d8 d4 | d4 c4 B4 |[M:3/2] A8 A4 | d4 d4 d4 | c8 c4 | _e4 e4 d4 || %53
w: ty.|Then take your|plea- sure|while you have|lei- sure,|then take your|plea- sure|while you have|
[M:4/4] d4 d4 | z8 | z8 |[M:4/4] z8 | z4 z2 d2 | f3 f e2 d2 | ^c4 d2 A2 | B4 B2 c2- | cB (B4 A2) | %62
w: lei- sure.||||Of|that which you have|plen- ty, of|that which you|* have plen\- *|
 B2 d2 d3 d | _e2 d2 d4 | d4 z2 B2 | A2 G2 c3 B | (A2 G4 ^F2) | G8 |] %68
w: ty, of that which|you have plen-|ty, of|that which you have|plen\- * *|ty.|
V:3
 G8 | ^F6 B2 | A2 G2 ^F4 | G8 | z8 | z2 G2 G2 G2 |[M:4/4] ^F4 G2 G2 | G3 F E2 D2 | E4 ^F2 =F2 | %9
w: La-|dies, you|see time fli-|eth,||you see time|fli- eth, And|beau- ty too it|di- eth, and|
 F6 F2 | c2 B2 A4 | B8 | z8 | z8 | z8 | z2 G2 d2 B2 | A2 G2 ^F4 | G2 B2 c2 B2 | A4 G4 | z8 | %20
w: beau- ty|too it di-|eth.||||La- dies, you|see time fli-|eth, you see time|fli- eth,||
 z4 z2 d2 | d6 d2 | _e2 d2 d4 | d8 ||[M:3/2] z12 | z12 | z12 | z12 | B4 B4 B4 | A8 A4 | %30
w: And|beau- ty|too it di-|eth.|||||Then take your|plea- sure|
[M:3/2] c4 c4 B4 ||[M:4/4] A4 =B4 | z8 | z8 | z8 | z4 z2 A2 | A3 B c2 G2 |[M:4/4] A4 A2 d2 | %38
w: while you have|lei- sure.||||Of|that which you have|plen- ty, of|
 d4 d2 _e2- | e2 d2 c4 | d2 B2 B3 B | G2 G2 ^F4 | G2 d2 d2 d2 | _e4 e4 | d8 | d8 ||[M:3/2] z12 | %47
w: that which you|* have plen-|ty, of that which|you have plen-|ty, of that which|you have|plen-|ty.||
 z12 | z12 |[M:3/2] z12 | B4 B4 B4 | A8 A4 | c4 c4 B4 ||[M:4/4] A4 =B4 | z8 | z8 |[M:4/4] z8 | %57
w: |||Then take your|plea- sure|while you have|lei- sure.||||
 z4 z2 A2 | A3 B c2 G2 | A4 A2 d2 | d4 d2 _e2- | e2 d2 c4 | d2 B2 B3 B | G2 G2 ^F4 | G2 d2 d2 d2 | %65
w: Of|that which you have|plen- ty, of|that which you|* have plen-|ty, of that which|you have plen-|ty, of that which|
 _e4 e4 | d8 | d8 |] %68
w: you have|plen-|ty.|
V:4
 z8 | z8 | z8 | z4 z2 D2 | D2 B,2 A,4 | G,2 G,2 C2 G,2 |[M:4/4] D4 D2 D2 | D3 D ^C2 D2 | %8
w: |||You|see time fli-|eth, you see time|fli- eth, and|beau- ty too it|
 (D2 ^C2) D2 D2 | D6 D2 | C2 D2 D4 | D8 | z8 | z8 | z8 | z4 z2 D2 | D2 B,2 A,4 | G,2 G,2 C2 G,2 | %18
w: di\- * eth, and|beau- ty|too it di-|eth.||||You|see time fli-|eth, you see time|
 D4 D2 D2 | D3 D ^C2 D2 | (D2 ^C2) D2 D2 | D6 D2 | C2 D2 D4 | D8 ||[M:3/2] B,4 _E4 C4 | B,8 B,4 | %26
w: fli- eth, And|beau- ty too it|di\- * eth, and|beau- ty|too it di-|eth.|Then take your|plea- sure|
 B,4 F4 G4 | D8 D4 | D4 D4 B,4 | C8 C4 |[M:3/2] C4 C4 D4 ||[M:4/4] D4 D4 | D8 | F4 F,4 | G,8 | %35
w: while you have|lei- sure,|then take your|plea- sure|while you have|lei- sure.|Nor|be so|dain-|
 A,4 z2 =F2 | F3 F G2 D2 |[M:4/4] E4 ^F2 D2 | D4 G,4 | A,2 B,2 C4 | B,4 z4 | z8 | z2 D2 A,2 B,2 | %43
w: ty of|that which you have|plen- ty, of|that which|you have plen-|ty,||of that which|
 C6 G,2 | D8 | D8 ||[M:3/2] B,4 _E4 C4 | B,8 B,4 | B,4 F4 G4 |[M:3/2] D8 D4 | D4 D4 B,4 | C8 C4 | %52
w: you have|plen-|ty.|Then take your|plea- sure|while you have|lei- sure,|then take your|plea- sure|
 C4 C4 D4 ||[M:4/4] D4 D4 | D8 | F4 F,4 |[M:4/4] G,8 | A,4 z2 =F2 | F3 F G2 D2 | E4 ^F2 D2 | %60
w: while you have|lei- sure.|Nor|be so|dain-|ty of|that which you have|plen- ty, of|
 D4 G,4 | A,2 B,2 C4 | B,4 z4 | z8 | z2 D2 A,2 B,2 | C6 G,2 | D8 | D8 |] %68
w: that which|you have plen-|ty,||of that which|you have|plen-|ty.|
V:5
 G8 | d6 B2 | F2 G2 d4 | d4 z2 G2 | A2 d2 d4 | d4 z4 |[M:4/4][K:treble-8] z2 D2 G4- | G2 G2 A2 B2 | %8
w: La-|dies, you|see time fli-|eth, you|see time fli-|eth,|And beau\-|* ty too it|
 A4 D2 F2 | F6 D2 | G2 G2 A4 | G8 | z4 G4 | d6 B2 | F2 G2 d4 | d4 z2 G2 | A2 d2 d4 | d4 z4 | %18
w: di- eth, and|beau- ty|too it di-|eth.|La-|dies, you|see time fli-|eth, you|see time fli-|eth,|
 z2 D2 G4- | G2 G2 A2 B2 | A4 D2 F2 | F6 D2 | G2 G2 A4 | G8 ||[M:3/2] z12 | z12 | z12 | z12 | %28
w: And beau\-|* ty too it|di- eth, and|beau- ty|too it di-|eth.|||||
 z4 F4 F4- | F2 G2 A4 F4 |[M:3/2][K:treble-8] G4 G4 G4 ||[M:4/4] A4 G4 | B8 | c4 d2 (d2- | %34
w: Then take|* your plea- sure|while you have|lei- sure.|Nor|be so dain\-|
 d2 cB c4) | d4 z2 d2 | d3 d c2 B2 |[M:4/4][K:treble-8] A4 D4 | z8 | z8 | z2 B2 B3 B | c2 G2 d4 | %42
w: |ty of|that which you have|plen- ty,|||of that which|you have plen-|
 G4 z2 d2 | c2 G4 c2- | c2 B2 A4 | G8 ||[M:3/2] z12 | z12 | z12 |[M:3/2][K:treble-8] z12 | %50
w: ty, of|that which you|* have plen-|ty.|||||
 z4 F4 F4- | F2 G2 A4 F4 | G4 G4 G4 ||[M:4/4] A4 G4 | B8 | c4 d2 (d2- | %56
w: Then take|* your plea- sure|While you have|lei- sure.|Nor|be so dain\-|
[M:4/4][K:treble-8] d2 cB c4) | d4 z2 d2 | d3 d c2 B2 | A4 D4 | z8 | z8 | z2 B2 B3 B | c2 G2 d4 | %64
w: |ty of|that which you have|plen- ty,|||of that which|you have plen-|
 G4 z2 d2 | c2 G4 c2- | c2 B2 A4 | G8 |] %68
w: ty, of|that which you|* have plen-|ty.|
V:6
 z8 | z8 | z4 z2 D,2 | G,6 G,2 | F,2 G,2 D,4 | G,,4 z4 |[M:4/4] z8 | z8 | z4 z2 B,,2 | B,,6 B,,2 | %10
w: ||La-|dies, you|see time fli-|eth,|||and|beau- ty|
 C,2 G,,2 D,4 | G,,8 | z8 | z8 | z4 z2 D,2 | G,6 G,2 | ^F,2 G,2 D,4 | G,,4 z4 | z8 | z8 | %20
w: too it di-|eth.|||La-|dies you|see time fli-|eth,|||
 z4 z2 B,,2 | B,,6 B,,2 | C,2 G,,2 D,4 | G,,8 ||[M:3/2] z12 | z12 | z12 | z12 | B,,4 B,,4 B,,4 | %29
w: and|beau- ty|too it di-|eth.|||||Then take your|
 F,8 F,4 |[M:3/2] C,4 C,4 G,,4 ||[M:4/4] D,4 G,,4 | G,8 | F,4 D,4 | _E,8 | D,8 | z8 | %37
w: plea- sure|while you have|lei- sure.|Nor|be so|dain-|ty||
[M:4/4] z4 z2 D,2 | G,3 A, B,2 _E,2 | F,8 | B,,8 | z8 | z2 G,2 ^F,2 G,2 | C,4 C,4 | D,8 | G,,8 || %46
w: of|that which you have|plen-|ty,||of that which|you have|plen-|ty.|
[M:3/2] z12 | z12 | z12 |[M:3/2] z12 | B,,4 B,,4 B,,4 | F,8 F,4 | C,4 C,4 G,,4 ||[M:4/4] D,4 G,,4 | %54
w: ||||Then take your|plea- sure|while you have|lei- sure.|
 G,8 | F,4 D,4 |[M:4/4] _E,8 | D,8 | z8 | z4 z2 D,2 | G,3 A, B,2 _E,2 | F,8 | B,,8 | z8 | %64
w: Nor|be so|dain-|ty||of|that which you have|plen-|ty,||
 z2 G,2 ^F,2 G,2 | C,4 C,4 | D,8 | G,,8 |] %68
w: of that which|you have|plen-|ty.|

